X: 021
T: Prince William of Gloucesters Favorite
C: by J.Gow
%O: 1795
%R: reel
N: This is version 2, for ABC software that understands voice overlays.
Z: 2018 John Chambers <jc:trillian.mit.edu>
B: Wm. Campbell "10th Book of New and Favorite Country Dances, Strathspey Reels" 1795 p.2
F: https://archive.org/details/campbellstenthbo00camp
M: 2/4
L: 1/8
K: Eb
% - - - - - - - - - - - - - - - - - - - - - - - - -
% Voice 1 arranged for small-scale proofreading
V: 1 staves=2
B |\
B2GE | DFB,A | GBeG | AFcA |\
GEDE | CA,AF | GEFD | E2-E :|
|: B |\
eBgB | fBaB | g>abg | afdB |\
[1 eBgB | fBaf | gefd | e2-e :|\
[2 egce | dfec |
dBc=A B2B |: A |\
GEEG | FDAF | GEEG | B>cde |\
GE-EG | FDAF | GEFD | E2E :|
% - - - - - - - - - - - - - - - - - - - - - - - - -
% Voice 1 preserves the original staff layout
V: 2 clef=bass middle=d
z |\
ebge | dfcz | e2e2 | d2f2 |\
e2de | e2d2 & c2B2 | e2bB | e2-e :||: z |\
g2e2 |
d2B2 | e>fge | dBdf | g2e2 | d2B2 |\
[1 egbB | e2e :|[2 f2=a2 | b2ge |\
f2F2 | BbB |: z |
[e4B4] | [d4B4] | [e4B4] | [ge4]>afg |\
[e4B4] | [d4B4] | [eB4]gdf | e2e :|
% - - - - - - - - - - - - - - - - - - - - - - - - -
%%begintext align
%% 1st & 2d Poussette round & back again
%% :|: Lead down the middle up again Alle
%% mande with Right & left   hand swing
%% Corners and sett :|:
%%endtext
% - - - - - - - - - - - - - - - - - - - - - - - - -

%%sep 1 1 500
%%sep 1 1 500

